packages/core/src/svgs/tokens/branded/AHT.svg

<svg width="24" height="24" viewBox="0 0 24 24" fill="none" xmlns="http://www.w3.org/2000/svg">
<path fill-rule="evenodd" clip-rule="evenodd" d="M18.5 7.25H18V9.24999H18.5V7.25ZM9.49998 7.75H8.49999V16.7499H9.49998V13.75C9.49998 13.2195 9.71071 12.7108 10.0858 12.3357C10.4609 11.9607 10.9695 11.75 11.5 11.75C12.0304 11.75 12.5392 11.9607 12.9143 12.3357C13.2892 12.7108 13.5 13.2195 13.5 13.75V16.7499H14.5V13.75C14.4997 13.171 14.332 12.6043 14.0169 12.1185C13.7019 11.6327 13.2528 11.2485 12.7242 11.0123C12.1956 10.7759 11.6099 10.6977 11.0378 10.7869C10.4657 10.8761 9.93156 11.129 9.49998 11.515V7.75ZM5 16.7499C5.76999 16.7499 6.46999 16.46 7 15.985V16.7499H7.99999V13.75C7.99999 13.1566 7.82405 12.5767 7.49441 12.0833C7.16475 11.5899 6.69622 11.2054 6.14804 10.9783C5.59987 10.7513 4.99667 10.6919 4.41473 10.8076C3.83278 10.9234 3.29824 11.2091 2.87868 11.6286C2.45913 12.0483 2.1734 12.5827 2.05764 13.1647C1.94189 13.7467 2.00131 14.3499 2.22836 14.8981C2.45543 15.4462 2.83994 15.9147 3.33329 16.2444C3.82663 16.574 4.40665 16.7499 5 16.7499ZM5 15.75C5.53043 15.75 6.03913 15.5393 6.4142 15.1642C6.78927 14.7891 7 14.2805 7 13.75C7 13.2195 6.78927 12.7108 6.4142 12.3357C6.03913 11.9607 5.53043 11.75 5 11.75C4.46956 11.75 3.96086 11.9607 3.58579 12.3357C3.21072 12.7108 2.99999 13.2195 2.99999 13.75C2.99999 14.2805 3.21072 14.7891 3.58579 15.1642C3.96086 15.5393 4.46956 15.75 5 15.75ZM18 16.7499C18.77 16.7499 19.47 16.46 20 15.985V16.7499H20.9999V13.75C20.9999 13.1566 20.824 12.5767 20.4944 12.0833C20.1647 11.5899 19.6962 11.2054 19.148 10.9783C18.5999 10.7513 17.9966 10.6919 17.4147 10.8076C16.8327 10.9234 16.2982 11.2091 15.8786 11.6286C15.4591 12.0483 15.1734 12.5827 15.0576 13.1647C14.9419 13.7467 15.0013 14.3499 15.2283 14.8981C15.4554 15.4462 15.8399 15.9147 16.3333 16.2444C16.8267 16.574 17.4066 16.7499 18 16.7499ZM18 15.75C18.5305 15.75 19.0391 15.5393 19.4142 15.1642C19.7893 14.7891 20 14.2805 20 13.75C20 13.2195 19.7893 12.7108 19.4142 12.3357C19.0391 11.9607 18.5305 11.75 18 11.75C17.4695 11.75 16.9608 11.9607 16.5857 12.3357C16.2107 12.7108 16 13.2195 16 13.75C16 14.2805 16.2107 14.7891 16.5857 15.1642C16.9608 15.5393 17.4695 15.75 18 15.75ZM14.9099 8.12999L14.515 8.52499L16.09 10.105L16.49 9.70499L14.9099 8.12999ZM22 8.5L21.605 8.10499L20.03 9.68499L20.425 10.085L22 8.5Z" fill="#30BFBD"/>
</svg>

<svg xmlns="http://www.w3.org/2000/svg" width="24" height="24" fill="none" viewBox="0 0 24 24">
    <path fill="#30BFBD" fill-rule="evenodd" d="M18.5 7.25H18v2h.5zm-9 .5h-1v9h1v-3a2 2 0 1 1 4 0v3h1v-3a3.001 3.001 0 0 0-5-2.235zm-4.5 9c.77 0 1.47-.29 2-.765v.765h1v-3a3 3 0 1 0-3 3m0-1a2 2 0 1 0 0-4 2 2 0 0 0 0 4m13 1c.77 0 1.47-.29 2-.765v.765h1v-3a3 3 0 1 0-3 3m0-1a2 2 0 1 0 0-4 2 2 0 0 0 0 4m-3.09-7.62-.395.395 1.575 1.58.4-.4zM22 8.5l-.395-.395-1.575 1.58.395.4z" clip-rule="evenodd"/>
</svg>
